X: 274
T: Margaret Ann Robertson
C: F.R.Jamieson
R: air, waltz
M: 3/4
L: 1/4
K: A
(3B,/A,/G,/ \
| "A"A,2E | C2A, | "D"D>FA | "E7"E3 | "A"c>BA | "F#m"c2A | "Bm"BGE | "E7"DCB, |
"A"A,2E | C2A, | "D"D>FA | "E7"E3 | "F#m"c>BA | "E7"c2B | "D"{G}A3 | "A"{B}A2 :|
c/d/ \
"A"e2A | {g}a2A | "D"g2A | "E"fec/d/ | "A"e2A | {g}a2c | "Bm"B<e^d | "E7"e2|
[1 c/d/ | "A"e2A | {g}a2A | "D"f>ga | "A"ecA | A,CE | A<ce | "E7"dcB | "A"A2 :|
[2 (3B,/A,/G,/| "A"A,2E | C2A, | "D"D>FA | "A"E3 | "(F#m)"c>B A/E/ | "E"{E}c2B | "D"{G}A3 | "A"{B}A2 |]
